X:1
T:Title
%%score { ( 1 3 4 ) | ( 2 5 6 ) }
L:1/8
M:4/4
K:Eb
V:1 treble nm="Grand Piano"
V:3 treble 
V:4 treble 
V:2 bass 
V:5 bass 
V:6 bass 
V:1
 z4 z2[Q:1/4=92] GA | [DG] [DF]2 [DG] [DB]2 [DG]>[DF] | [DF]2 E4 E2 | F E2 F GA B2 | [Cc]6 cc | %5
 B2 BB A2 cA |[M:3/4] [B,DG]2 [A,DF]4 |[M:1/4] [G,DG][G,DF] | %8
[M:4/4] [G,CE] [CEG]2 [EGc] [DGB]2 [C_G=A]>[B,D=G] |[M:3/4] [B,DG]4 z2 |[M:1/4] [DGB][DGB] | %11
[M:4/4] [DAc] [DF]2 [EG] [FA]2 [GB]>[Ac] | [GB]2 [EG]4 [GB]2 | [Gd]2 [_Gc][=GB] [_G=A]2 [=GB][Ac] | %14
[M:7/8] B-B-B- B- B3 |[M:1/4] [DAB]2 |[M:4/4] [Ge]2 [Gd][Ge] [B,EB]2 [B,DA][_DEG] | %17
 [CEF]2 [EFc]4 [E_Gc]2 |[M:35/32] z3/2 z/4 z3/2 z/4 z3 [DB]2- [DB]/4- | %19
[M:3/4] [DB]3/4 z/4 z z2 z2 |] %20
V:2
 z4 z2 [E,B,E][E,CE] | [B,,B,] [B,,A,]2 [B,,B,] [B,,F,]2 [B,,B,]>[B,,A,] | %2
 [B,,A,]2 [E,G,B,]4 [E,G,B,]2 | [E,G,_D] [E,G,D]2 [E,F,D] [E,D][E,F,D] [E,G,D]2 | %4
 [A,,E,]6 [A,E][A,E] | [G,B,E]2 [G,B,E][G,B,E] [F,CE]2 [F,A,E][F,CE] |[M:3/4] B,,2 B,,4 | %7
[M:1/4] =B,,B,, |[M:4/4] C, C,2 C, D,2 D,>G, |[M:3/4] G,4 z2 |[M:1/4] G,G, | %11
[M:4/4] B,, [B,,B,]2 [B,,B,] [D,B,]2 [B,,B,]>[B,,B,] | [E,B,]2 [E,B,]4 [E,B,]2 | %13
 [D,B,]2 [D,=A,][D,B,] [D,D]2 [D,D][D,D] |[M:7/8][K:treble] [G,DG]2 [G,B,]2[K:bass] [F,D]3 | %15
[M:1/4] B,,2 |[M:4/4] [E,B,]2 [E,B,][E,B,] G,2 F,E, | A,,2 A,,4 =A,,2 | %18
[M:35/32] z3/2 z/4 z3/2 z/4 z3 [B,,A,]2- [B,,A,]/4- |[M:3/4] [B,,A,]3/4 z/4 z z2 z2 |] %20
V:3
 x8 | x8 | x8 | x8 | x8 | x8 |[M:3/4] x6 |[M:1/4] x2 |[M:4/4] x8 |[M:3/4] x6 |[M:1/4] x2 | %11
[M:4/4] x8 | x8 | x8 |[M:7/8] z2 D2 A3 |[M:1/4] x2 |[M:4/4] x8 | x8 | %18
[M:35/32] [EGB]2 [E_G=A][E=GB] .[=A,Ec]2 z2 z3/4 |[M:3/4] [G,B,E]4- [G,B,E]/4 z/4 z/ z |] %20
V:4
 x8 | x8 | x8 | x8 | x8 | x8 |[M:3/4] x6 |[M:1/4] x2 |[M:4/4] x8 |[M:3/4] x6 |[M:1/4] x2 | %11
[M:4/4] x8 | x8 | x8 |[M:7/8] x7 |[M:1/4] x2 |[M:4/4] x8 | x8 |[M:35/32] z4 z/ .[=A,Ec]4 z/4 | %19
[M:3/4] x6 |] %20
V:5
 x8 | x8 | x8 | x8 | x8 | x8 |[M:3/4] x6 |[M:1/4] x2 |[M:4/4] x8 |[M:3/4] x6 |[M:1/4] x2 | %11
[M:4/4] x8 | x8 | x8 |[M:7/8][K:treble] x4[K:bass] x3 |[M:1/4] x2 |[M:4/4] x8 | x8 | %18
[M:35/32] B,,2 B,,B,, .F,,2 z2 z3/4 |[M:3/4] [E,,E,]4- [E,,E,]/4 z/4 z/ z |] %20
V:6
 x8 | x8 | x8 | x8 | x8 | x8 |[M:3/4] x6 |[M:1/4] x2 |[M:4/4] x8 |[M:3/4] x6 |[M:1/4] x2 | %11
[M:4/4] x8 | x8 | x8 |[M:7/8][K:treble] x4[K:bass] x3 |[M:1/4] x2 |[M:4/4] x8 | x8 | %18
[M:35/32] z4 z/ .F,,4 z/4 |[M:3/4] x6 |] %20

